X: 8455
T: Craic With Jack
R: polka
M: 2/4
K: Adorian
d|:eA a>g|ed ce|d>e dc|B/c/d/c/ BG|
[1 eA a>g|ed ce|dc Bc|A2 AB:|
[2 A,>B, CD|EG AB|cd Bc|A2 AB||
A a2 A|g2 fg|e>d eg|ed cB|
A a2 A|g2 fg|e>d eg|a2 ab|
a>g ed|eA A/B/c/A/|d>e dc|B/c/d/c/ BG|
A,>B, CD|EG AB|cd Bc|AB cB||

